X:1
T:Wayfaring Stranger
C:Traditional (American Spiritual)
M:4/4
L:1/4
Q:1/4=72
K:Em
E2 E F | G2 A B | B2 A G | A4 | E2 E F | G2 A B | c2 B A | G4 | B2 c d | e2 d c | B2 A G | A4 |]
w: I'm just a | poor way-far-ing | stran-ger trav-el-ing | through this world of | woe yet there's no | sick-ness toil or | dan-ger in that bright | world to which I | go I'm go-ing | there to see my | moth-er she said | she'd meet me when I |
